src/16/actions/contrast.svg

<svg xmlns="http://www.w3.org/2000/svg" width="16" height="16" version="1.1" viewBox="0 0 16 16">
 <defs>
  <style id="current-color-scheme" type="text/css">
   .ColorScheme-Text { color:#565656; } .ColorScheme-Highlight { color:#5294e2; }
  </style>
 </defs>
 <path style="fill:currentColor" class="ColorScheme-Text" d="M 7 0 L 7 2 L 9 2 L 9 0 L 8.5 0 L 7.5 0 L 7 0 z M 3.0507812 1.6367188 L 2.703125 1.984375 L 2.6875 1.96875 L 1.96875 2.6875 L 1.984375 2.703125 L 1.6367188 3.0507812 L 3.0507812 4.4648438 L 4.4648438 3.0507812 L 3.0507812 1.6367188 z M 12.949219 1.6367188 L 11.535156 3.0507812 L 12.949219 4.4648438 L 14.363281 3.0507812 L 14.015625 2.703125 L 14.03125 2.6875 L 13.3125 1.96875 L 13.296875 1.984375 L 12.949219 1.6367188 z M 8 3 C 5.2386 3 3 5.2386 3 8 C 3 10.7614 5.2386 13 8 13 C 10.7614 13 13 10.7614 13 8 C 13 5.2386 10.7614 3 8 3 z M 8 5 L 8 11 A 3 3 0 0 1 5 8 A 3 3 0 0 1 8 5 z M 0 7 L 0 7.5 L 0 8.5 L 0 9 L 2 9 L 2 7 L 0 7 z M 14 7 L 14 9 L 16 9 L 16 8.5 L 16 7.5 L 16 7 L 14 7 z M 3.0507812 11.535156 L 1.6367188 12.949219 L 1.984375 13.296875 L 1.96875 13.3125 L 2.6875 14.03125 L 2.703125 14.015625 L 3.0507812 14.363281 L 4.4648438 12.949219 L 3.0507812 11.535156 z M 12.949219 11.535156 L 11.535156 12.949219 L 12.949219 14.363281 L 13.296875 14.015625 L 13.3125 14.03125 L 14.03125 13.3125 L 14.015625 13.296875 L 14.363281 12.949219 L 12.949219 11.535156 z M 7 14 L 7 16 L 7.5 16 L 8.5 16 L 9 16 L 9 14 L 7 14 z"/>
</svg>

<svg xmlns="http://www.w3.org/2000/svg" width="16" height="16"><defs><style id="current-color-scheme" type="text/css"></style></defs><path d="M7 0v2h2V0H7zM3.05 1.637l-.347.347-.015-.015-.72.718.016.016-.347.348L3.05 4.465 4.465 3.05 3.05 1.637zm9.9 0L11.534 3.05l1.414 1.414 1.414-1.414-.347-.348.015-.015-.719-.72-.015.016-.348-.347zM8 3a5 5 0 1 0 0 10A5 5 0 0 0 8 3zm0 2v6a3 3 0 0 1-3-3 3 3 0 0 1 3-3zM0 7v2h2V7H0zm14 0v2h2V7h-2zM3.05 11.535L1.638 12.95l.347.348-.015.015.718.72.016-.016.348.347 1.414-1.414-1.414-1.414zm9.9 0l-1.415 1.414 1.414 1.414.348-.347.015.015.72-.719-.016-.015.347-.348-1.414-1.414zM7 14v2h2v-2H7z" fill="currentColor" color="#565656"/></svg>
